static/img/kroki/220f11fa059a38ec65df6cf813a5419b.svg

<?xml version="1.0" encoding="us-ascii" standalone="no"?><svg xmlns="http://www.w3.org/2000/svg" xmlns:xlink="http://www.w3.org/1999/xlink" contentStyleType="text/css" height="645px" preserveAspectRatio="none" style="width:579px;height:645px;" version="1.1" viewBox="0 0 579 645" width="579px" zoomAndPan="magnify"><defs/><g><!--class aws_vpc_peering_connection--><g id="elem_aws_vpc_peering_connection"><rect codeLine="23" fill="#3D176E" height="39.7891" id="aws_vpc_peering_connection" rx="2.5" ry="2.5" style="stroke:#000D19;stroke-width:0.5;" width="284" x="7" y="599.55"/><ellipse cx="22" cy="619.4445" fill="#ADD1B2" rx="11" ry="11" style="stroke:#181818;stroke-width:1.0;"/><path d="M24.9688,625.0852 Q24.3906,625.382 23.75,625.5227 Q23.1094,625.6789 22.4063,625.6789 Q19.9063,625.6789 18.5781,624.0383 Q17.2656,622.382 17.2656,619.257 Q17.2656,616.132 18.5781,614.4758 Q19.9063,612.8195 22.4063,612.8195 Q23.1094,612.8195 23.75,612.9758 Q24.4063,613.132 24.9688,613.4289 L24.9688,616.1477 Q24.3438,615.5695 23.75,615.3039 Q23.1563,615.0227 22.5313,615.0227 Q21.1875,615.0227 20.5,616.1008 Q19.8125,617.1633 19.8125,619.257 Q19.8125,621.3508 20.5,622.4289 Q21.1875,623.4914 22.5313,623.4914 Q23.1563,623.4914 23.75,623.2258 Q24.3438,622.9445 24.9688,622.3664 L24.9688,625.0852 Z " fill="#000000"/><text fill="#D9B8FF" font-family="Helvetica" font-size="17" lengthAdjust="spacing" textLength="242" x="41" y="625.3298">aws_vpc_peering_connection</text></g><!--class azure_network_vpn_site--><g id="elem_azure_network_vpn_site"><rect codeLine="26" fill="#3D176E" height="39.7891" id="azure_network_vpn_site" rx="2.5" ry="2.5" style="stroke:#000D19;stroke-width:0.5;" width="246" x="326" y="599.55"/><ellipse cx="341" cy="619.4445" fill="#ADD1B2" rx="11" ry="11" style="stroke:#181818;stroke-width:1.0;"/><path d="M343.9688,625.0852 Q343.3906,625.382 342.75,625.5227 Q342.1094,625.6789 341.4063,625.6789 Q338.9063,625.6789 337.5781,624.0383 Q336.2656,622.382 336.2656,619.257 Q336.2656,616.132 337.5781,614.4758 Q338.9063,612.8195 341.4063,612.8195 Q342.1094,612.8195 342.75,612.9758 Q343.4063,613.132 343.9688,613.4289 L343.9688,616.1477 Q343.3438,615.5695 342.75,615.3039 Q342.1563,615.0227 341.5313,615.0227 Q340.1875,615.0227 339.5,616.1008 Q338.8125,617.1633 338.8125,619.257 Q338.8125,621.3508 339.5,622.4289 Q340.1875,623.4914 341.5313,623.4914 Q342.1563,623.4914 342.75,623.2258 Q343.3438,622.9445 343.9688,622.3664 L343.9688,625.0852 Z " fill="#000000"/><text fill="#D9B8FF" font-family="Helvetica" font-size="17" lengthAdjust="spacing" textLength="204" x="360" y="625.3298">azure_network_vpn_site</text></g><!--class peering_connection--><g id="elem_peering_connection"><rect codeLine="29" fill="#3D176E" height="39.7891" id="peering_connection" rx="2.5" ry="2.5" style="stroke:#000D19;stroke-width:0.5;" width="205" x="196.5" y="438.76"/><ellipse cx="211.5" cy="458.6545" fill="#ADD1B2" rx="11" ry="11" style="stroke:#181818;stroke-width:1.0;"/><path d="M214.4688,464.2952 Q213.8906,464.592 213.25,464.7327 Q212.6094,464.8889 211.9063,464.8889 Q209.4063,464.8889 208.0781,463.2483 Q206.7656,461.592 206.7656,458.467 Q206.7656,455.342 208.0781,453.6858 Q209.4063,452.0295 211.9063,452.0295 Q212.6094,452.0295 213.25,452.1858 Q213.9063,452.342 214.4688,452.6389 L214.4688,455.3577 Q213.8438,454.7795 213.25,454.5139 Q212.6563,454.2327 212.0313,454.2327 Q210.6875,454.2327 210,455.3108 Q209.3125,456.3733 209.3125,458.467 Q209.3125,460.5608 210,461.6389 Q210.6875,462.7014 212.0313,462.7014 Q212.6563,462.7014 213.25,462.4358 Q213.8438,462.1545 214.4688,461.5764 L214.4688,464.2952 Z " fill="#000000"/><text fill="#D9B8FF" font-family="Helvetica" font-size="17" lengthAdjust="spacing" textLength="163" x="230.5" y="464.5398">peering_connection</text></g><!--class resource--><g id="elem_resource"><rect codeLine="32" fill="#3D176E" height="310.7578" id="resource" rx="2.5" ry="2.5" style="stroke:#000D19;stroke-width:0.5;" width="227" x="185.5" y="7"/><ellipse cx="254.25" cy="26.8945" fill="#ADD1B2" rx="11" ry="11" style="stroke:#181818;stroke-width:1.0;"/><path d="M257.2188,32.5352 Q256.6406,32.832 256,32.9727 Q255.3594,33.1289 254.6563,33.1289 Q252.1563,33.1289 250.8281,31.4883 Q249.5156,29.832 249.5156,26.707 Q249.5156,23.582 250.8281,21.9258 Q252.1563,20.2695 254.6563,20.2695 Q255.3594,20.2695 256,20.4258 Q256.6563,20.582 257.2188,20.8789 L257.2188,23.5977 Q256.5938,23.0195 256,22.7539 Q255.4063,22.4727 254.7813,22.4727 Q253.4375,22.4727 252.75,23.5508 Q252.0625,24.6133 252.0625,26.707 Q252.0625,28.8008 252.75,29.8789 Q253.4375,30.9414 254.7813,30.9414 Q255.4063,30.9414 256,30.6758 Q256.5938,30.3945 257.2188,29.8164 L257.2188,32.5352 Z " fill="#000000"/><text fill="#D9B8FF" font-family="Helvetica" font-size="17" lengthAdjust="spacing" textLength="71" x="279.75" y="32.7798">resource</text><line style="stroke:#000D19;stroke-width:0.5;" x1="186.5" x2="411.5" y1="46.7891" y2="46.7891"/><text fill="#D9B8FF" font-family="sans-serif" font-size="14" font-weight="bold" lengthAdjust="spacing" textLength="29" x="196.5" y="68.7842">age</text><text fill="#D9B8FF" font-family="sans-serif" font-size="14" lengthAdjust="spacing" textLength="66" x="225.5" y="68.7842">: duration</text><text fill="#D9B8FF" font-family="sans-serif" font-size="14" font-weight="bold" lengthAdjust="spacing" textLength="43" x="196.5" y="95.0811">atime</text><text fill="#D9B8FF" font-family="sans-serif" font-size="14" lengthAdjust="spacing" textLength="70" x="239.5" y="95.0811">: datetime</text><text fill="#D9B8FF" font-family="sans-serif" font-size="14" font-weight="bold" lengthAdjust="spacing" textLength="43" x="196.5" y="121.3779">ctime</text><text fill="#D9B8FF" font-family="sans-serif" font-size="14" lengthAdjust="spacing" textLength="70" x="239.5" y="121.3779">: datetime</text><text fill="#D9B8FF" font-family="sans-serif" font-size="14" font-weight="bold" lengthAdjust="spacing" textLength="14" x="196.5" y="147.6748">id</text><text fill="#D9B8FF" font-family="sans-serif" font-size="14" lengthAdjust="spacing" textLength="48" x="210.5" y="147.6748">: string</text><text fill="#D9B8FF" font-family="sans-serif" font-size="14" font-weight="bold" lengthAdjust="spacing" textLength="33" x="196.5" y="173.9717">kind</text><text fill="#D9B8FF" font-family="sans-serif" font-size="14" lengthAdjust="spacing" textLength="48" x="229.5" y="173.9717">: string</text><text fill="#D9B8FF" font-family="sans-serif" font-size="14" font-weight="bold" lengthAdjust="spacing" textLength="90" x="196.5" y="200.2686">last_access</text><text fill="#D9B8FF" font-family="sans-serif" font-size="14" lengthAdjust="spacing" textLength="66" x="286.5" y="200.2686">: duration</text><text fill="#D9B8FF" font-family="sans-serif" font-size="14" font-weight="bold" lengthAdjust="spacing" textLength="90" x="196.5" y="226.5654">last_update</text><text fill="#D9B8FF" font-family="sans-serif" font-size="14" lengthAdjust="spacing" textLength="66" x="286.5" y="226.5654">: duration</text><text fill="#D9B8FF" font-family="sans-serif" font-size="14" font-weight="bold" lengthAdjust="spacing" textLength="48" x="196.5" y="252.8623">mtime</text><text fill="#D9B8FF" font-family="sans-serif" font-size="14" lengthAdjust="spacing" textLength="70" x="244.5" y="252.8623">: datetime</text><text fill="#D9B8FF" font-family="sans-serif" font-size="14" font-weight="bold" lengthAdjust="spacing" textLength="43" x="196.5" y="279.1592">name</text><text fill="#D9B8FF" font-family="sans-serif" font-size="14" lengthAdjust="spacing" textLength="48" x="239.5" y="279.1592">: string</text><text fill="#D9B8FF" font-family="sans-serif" font-size="14" font-weight="bold" lengthAdjust="spacing" textLength="34" x="196.5" y="305.4561">tags</text><text fill="#D9B8FF" font-family="sans-serif" font-size="14" lengthAdjust="spacing" textLength="171" x="230.5" y="305.4561">: dictionary[string, string]</text></g><!--reverse link peering_connection to aws_vpc_peering_connection--><g id="link_peering_connection_aws_vpc_peering_connection"><path codeLine="44" d="M268.5495,491.895 C239.7195,522.415 196.03,568.66 167.16,599.22 " fill="none" id="peering_connection-backto-aws_vpc_peering_connection" style="stroke:#FFAF37;stroke-width:2.0;"/><polygon fill="none" points="280.91,478.81,264.1878,487.7749,272.9112,496.0152,280.91,478.81" style="stroke:#FFAF37;stroke-width:2.0;"/></g><!--reverse link peering_connection to azure_network_vpn_site--><g id="link_peering_connection_azure_network_vpn_site"><path codeLine="45" d="M329.4505,491.895 C358.2805,522.415 401.97,568.66 430.84,599.22 " fill="none" id="peering_connection-backto-azure_network_vpn_site" style="stroke:#FFAF37;stroke-width:2.0;"/><polygon fill="none" points="317.09,478.81,325.0888,496.0152,333.8122,487.7749,317.09,478.81" style="stroke:#FFAF37;stroke-width:2.0;"/></g><!--reverse link resource to peering_connection--><g id="link_resource_peering_connection"><path codeLine="46" d="M299,335.85 C299,384.14 299,413.37 299,438.68 " fill="none" id="resource-backto-peering_connection" style="stroke:#FFAF37;stroke-width:2.0;"/><polygon fill="none" points="299,317.85,293,335.85,305,335.85,299,317.85" style="stroke:#FFAF37;stroke-width:2.0;"/></g><!--SRC=[XPDFIyD04CNl-HGBteg5rgArugKMH2z5r9j8cEvEsYN9RfYTjDG_tztTHajCOhnbt_lDl9c1RBH2WNd1Uv5Zla9oaKkrAO0W5tCYkrlOp98uIH989jEcUMiD_mii8KTnXzaMMKje4iyRBLE3pecpcdK3CbsJBOsgsZE1STv2mpLgaO5pSsRIgvAnDeoQhIwJf4ascvvCr7XwWItCaaBwHaQZaHhFciY_KRrx7uad_OPYN3_QqZAsncn57AZUAGDH6xArw8__vumFe9GsQt5UqnwhcSWW_TAVDg3iBj09PAuUunW9BUyBNBIsmjcbIgQTyFrVS2J3wGJiNBmjP5mWae-DfJK69Mjhn7iKVVvGRoLXR91tbbBFczXfnZhHNq_eR4aoL0m6iCR1u4geaY1mGM6TLnemXc-loGvDgo0u3ad-wTVzBVWiZa5A_miq4WvEMOHU3IVlo35GISV63Ekgepwi1hH_gRpJR-RLhzfnWkkFuN3OS-EUciwBHyT3LbH7noy0]--></g></svg>

<svg xmlns="http://www.w3.org/2000/svg" width="579" height="645" viewBox="0 0 579 645"><rect width="284" height="39.789" x="7" y="599.55" fill="#3D176E" rx="2.5" ry="2.5" style="stroke:#000d19;stroke-width:.5"/><circle cx="22" cy="619.444" r="11" fill="#ADD1B2" style="stroke:#181818;stroke-width:1"/><path d="M24.969 625.085q-.578.297-1.219.438-.64.156-1.344.156-2.5 0-3.828-1.64-1.312-1.657-1.312-4.782t1.312-4.781q1.328-1.657 3.828-1.657.703 0 1.344.157.656.156 1.219.453v2.719q-.625-.579-1.219-.844-.594-.281-1.219-.281-1.343 0-2.031 1.078-.687 1.062-.687 3.156t.687 3.172q.688 1.062 2.031 1.062.625 0 1.219-.265.594-.282 1.219-.86z"/><text x="41" y="625.33" fill="#D9B8FF" font-family="Helvetica" font-size="17" textLength="242">aws_vpc_peering_connection</text><rect width="246" height="39.789" x="326" y="599.55" fill="#3D176E" rx="2.5" ry="2.5" style="stroke:#000d19;stroke-width:.5"/><circle cx="341" cy="619.444" r="11" fill="#ADD1B2" style="stroke:#181818;stroke-width:1"/><path d="M343.969 625.085q-.578.297-1.219.438-.64.156-1.344.156-2.5 0-3.828-1.64-1.312-1.657-1.312-4.782t1.312-4.781q1.328-1.657 3.828-1.657.703 0 1.344.157.656.156 1.219.453v2.719q-.625-.579-1.219-.844-.594-.281-1.219-.281-1.344 0-2.031 1.078-.687 1.062-.687 3.156t.687 3.172q.688 1.062 2.031 1.062.625 0 1.219-.265.594-.282 1.219-.86z"/><text x="360" y="625.33" fill="#D9B8FF" font-family="Helvetica" font-size="17" textLength="204">azure_network_vpn_site</text><rect width="205" height="39.789" x="196.5" y="438.76" fill="#3D176E" rx="2.5" ry="2.5" style="stroke:#000d19;stroke-width:.5"/><circle cx="211.5" cy="458.654" r="11" fill="#ADD1B2" style="stroke:#181818;stroke-width:1"/><path d="M214.469 464.295q-.578.297-1.219.438-.64.156-1.344.156-2.5 0-3.828-1.64-1.312-1.657-1.312-4.782t1.312-4.781q1.328-1.656 3.828-1.656.703 0 1.344.156.656.156 1.219.453v2.719q-.625-.579-1.219-.844-.594-.281-1.219-.281-1.344 0-2.031 1.078-.687 1.062-.687 3.156t.687 3.172q.688 1.062 2.031 1.062.625 0 1.219-.265.594-.281 1.219-.86z"/><text x="230.5" y="464.54" fill="#D9B8FF" font-family="Helvetica" font-size="17" textLength="163">peering_connection</text><rect width="227" height="310.758" x="185.5" y="7" fill="#3D176E" rx="2.5" ry="2.5" style="stroke:#000d19;stroke-width:.5"/><circle cx="254.25" cy="26.895" r="11" fill="#ADD1B2" style="stroke:#181818;stroke-width:1"/><path d="M257.219 32.535q-.578.297-1.219.438-.64.156-1.344.156-2.5 0-3.828-1.64-1.312-1.657-1.312-4.782t1.312-4.781q1.328-1.656 3.828-1.656.703 0 1.344.156.656.156 1.219.453v2.719q-.625-.578-1.219-.844-.594-.281-1.219-.281-1.344 0-2.031 1.078-.687 1.062-.687 3.156t.687 3.172q.688 1.062 2.031 1.062.625 0 1.219-.265.594-.281 1.219-.86z"/><text x="279.75" y="32.78" fill="#D9B8FF" font-family="Helvetica" font-size="17" textLength="71">resource</text><path d="M186.5 46.789h225" style="stroke:#000d19;stroke-width:.5"/><text x="196.5" y="68.784" fill="#D9B8FF" font-family="sans-serif" font-size="14" font-weight="bold" textLength="29">age</text><text x="225.5" y="68.784" fill="#D9B8FF" font-family="sans-serif" font-size="14" textLength="66">: duration</text><text x="196.5" y="95.081" fill="#D9B8FF" font-family="sans-serif" font-size="14" font-weight="bold" textLength="43">atime</text><text x="239.5" y="95.081" fill="#D9B8FF" font-family="sans-serif" font-size="14" textLength="70">: datetime</text><text x="196.5" y="121.378" fill="#D9B8FF" font-family="sans-serif" font-size="14" font-weight="bold" textLength="43">ctime</text><text x="239.5" y="121.378" fill="#D9B8FF" font-family="sans-serif" font-size="14" textLength="70">: datetime</text><text x="196.5" y="147.675" fill="#D9B8FF" font-family="sans-serif" font-size="14" font-weight="bold" textLength="14">id</text><text x="210.5" y="147.675" fill="#D9B8FF" font-family="sans-serif" font-size="14" textLength="48">: string</text><text x="196.5" y="173.972" fill="#D9B8FF" font-family="sans-serif" font-size="14" font-weight="bold" textLength="33">kind</text><text x="229.5" y="173.972" fill="#D9B8FF" font-family="sans-serif" font-size="14" textLength="48">: string</text><text x="196.5" y="200.269" fill="#D9B8FF" font-family="sans-serif" font-size="14" font-weight="bold" textLength="90">last_access</text><text x="286.5" y="200.269" fill="#D9B8FF" font-family="sans-serif" font-size="14" textLength="66">: duration</text><text x="196.5" y="226.565" fill="#D9B8FF" font-family="sans-serif" font-size="14" font-weight="bold" textLength="90">last_update</text><text x="286.5" y="226.565" fill="#D9B8FF" font-family="sans-serif" font-size="14" textLength="66">: duration</text><text x="196.5" y="252.862" fill="#D9B8FF" font-family="sans-serif" font-size="14" font-weight="bold" textLength="48">mtime</text><text x="244.5" y="252.862" fill="#D9B8FF" font-family="sans-serif" font-size="14" textLength="70">: datetime</text><text x="196.5" y="279.159" fill="#D9B8FF" font-family="sans-serif" font-size="14" font-weight="bold" textLength="43">name</text><text x="239.5" y="279.159" fill="#D9B8FF" font-family="sans-serif" font-size="14" textLength="48">: string</text><text x="196.5" y="305.456" fill="#D9B8FF" font-family="sans-serif" font-size="14" font-weight="bold" textLength="34">tags</text><text x="230.5" y="305.456" fill="#D9B8FF" font-family="sans-serif" font-size="14" textLength="171">: dictionary[string, string]</text><g fill="none"><path d="M268.55 491.895c-28.83 30.52-72.52 76.765-101.39 107.325" style="stroke:#ffaf37;stroke-width:2"/><path d="m280.91 478.81-16.722 8.965 8.723 8.24z" style="stroke:#ffaf37;stroke-width:2"/></g><g fill="none"><path d="M329.45 491.895c28.83 30.52 72.52 76.765 101.39 107.325" style="stroke:#ffaf37;stroke-width:2"/><path d="m317.09 478.81 7.999 17.205 8.723-8.24z" style="stroke:#ffaf37;stroke-width:2"/></g><path fill="none" d="M299 335.85v102.83m0-120.83-6 18h12z" style="stroke:#ffaf37;stroke-width:2"/></svg>
